X:198
T:One for Dan
M:4/4
L:1/8
K:G
"Em"GBge "G"dBed | "Em"GBge "G"dBed | "Am"ccAc "G"BBGB | "Am"ABcd "Am"A2  AB |
"Em"GBge "G"dBed | "Em"GBge "G"dBed | "C"cdef "G"gdBG  | "Am"ABcA "G"GG G2 :||:
"Bm"d2 fe "G"d2 dd | "Em"e2 f2 "G"g2 gg | "Bm"fe d2 "C"ed c2 | "G"dcBc "Am"A2 AB |
"C"c2 cc "G"B2 GB | "Am"ABcd "Am"A2 AA | "G"B2 Bc "G"dcBA | "G"Gggg  "G"g4 :|
